src/assets/icons/letters,simple,sans-r.svg

<svg width="48" height="48" viewBox="0 0 48 48" fill="none" xmlns="http://www.w3.org/2000/svg">
<rect opacity="0.2" x="5" y="5" width="38" height="38" rx="4" fill="black"/>
<path d="M15.7876 36H20.5543V28.0078H24.033L28.3043 36H33.5664L28.7777 27.2372C31.3427 26.1364 32.7628 23.9016 32.7628 20.8192C32.7628 16.3388 29.8015 13.4545 24.6825 13.4545H15.7876V36ZM20.5543 24.1768V17.3516H23.7688C26.521 17.3516 27.853 18.5735 27.853 20.8192C27.853 23.054 26.521 24.1768 23.7908 24.1768H20.5543Z" fill="black"/>
</svg>

<svg xmlns="http://www.w3.org/2000/svg" width="48" height="48" fill="none" viewBox="0 0 48 48">
  <rect width="38" height="38" x="5" y="5" fill="#000" opacity=".2" rx="4"/>
  <path fill="#000" d="M15.788 36h4.766v-7.992h3.479L28.304 36h5.262l-4.788-8.763c2.565-1.1 3.985-3.335 3.985-6.418 0-4.48-2.961-7.364-8.08-7.364h-8.895V36zm4.766-11.823v-6.825h3.215c2.752 0 4.084 1.221 4.084 3.467 0 2.235-1.332 3.358-4.062 3.358h-3.237z"/>
</svg>
